COLOR/action 16/16/mail-receive.svg

<svg height="16" width="16" xmlns="http://www.w3.org/2000/svg" xmlns:xlink="http://www.w3.org/1999/xlink"><linearGradient id="a" gradientTransform="matrix(.34782603 0 0 .44142237 -.460223 -2.141522)" gradientUnits="userSpaceOnUse" x1="23.612318" x2="27.27836" y1="23.79875" y2="6.926995"><stop offset="0" stop-color="#f6f5f4"/><stop offset="1" stop-color="#e9e7e4"/></linearGradient><g fill="#aea795" transform="matrix(1.2499506 0 0 1.2082865 -1518.19 379.69425)"><path d="m2.375 1.5c-1.037459 0-1.875.8084139-1.875 1.8125v10.875c0 1.004086.837541 1.8125 1.875 1.8125h11.25c1.038709 0 1.875-.808414 1.875-1.8125v-10.875c0-1.0040861-.836291-1.8125-1.875-1.8125h-.380859v1.2558594c.570132.1126506 1.005859.5767165 1.005859 1.1621094v7.2480472h-1.005859-2.744141c0 .66939-.278612 1.274142-.7304688 1.710937-.3388928.327597-.776533.561946-1.265625.658203-.1624727.03192-.3314503.048828-.5039062.048828-.6924726 0-1.3176741-.270235-1.7695312-.707031-.4518572-.436795-.7304688-1.041547-.7304688-1.710937h-3-.75v-7.2480472c0-.4970708.3081904-.9214898.75-1.1074219v-1.3105469z" fill="#666" stroke-width="1.228942" transform="matrix(.80003162 0 0 .82761828 1214.6 -314.2419)"/><path d="m1225.1957-312.37491v.41381c.4561.0932.8047.4773.8047.96178v-.41381c0-.48448-.3486-.86858-.8047-.96178zm-8.5957.0453c-.3535.15388-.6.50514-.6.91652v.41381c0-.41138.2465-.76264.6-.91652zm-1.6001 9.41577v.41381c0 .831.6701 1.50006 1.5001 1.50006h9.0004c.831 0 1.5-.66906 1.5-1.50006v-.41381c0 .831-.669 1.50006-1.5 1.50006h-9.0004c-.83 0-1.5001-.66906-1.5001-1.50006z" fill="#000" opacity=".2"/></g><path d="m2.375 1.5c-1.037459 0-1.875.8103669-1.875 1.8144531v.4902344c0-1.0040861.837541-1.8144531 1.875-1.8144531h.125v-.4902344zm10.869141 0v.4902344h.378906c1.038709 0 1.876953.810367 1.876953 1.8144531v-.4902344c0-1.0040862-.838244-1.8144531-1.876953-1.8144531zm-11.494141 9.666016v.490234h3.75c0 1.338782 1.1150547 2.417969 2.5 2.417969 1.3849452 0 2.5-1.079187 2.5-2.417969h3.75v-.490234h-1.005859-2.744141c0 .167347-.017601.330627-.050781.488281-.066361.315307-.195676.608076-.375.865234-.3585652.51441-.9162985.887132-1.5683596 1.015625-.1630519.03216-.3327412.048828-.5058594.048828-.6924726 0-1.3176741-.270235-1.7695312-.707031-.1129643-.109199-.2150253-.228843-.3046876-.357422-.1793245-.257158-.3086397-.549927-.375-.865234-.0331801-.157654-.0507812-.320934-.0507812-.488281h-3z" fill="#fff" opacity=".3" stroke-width="1.228942"/><path d="m2.5 0v1.5 1.4082031 8.2578129h3c0 .66939.2786116 1.274142.7304688 1.710937.4518571.436796 1.0770586.707031 1.7695312.707031s1.3176741-.270235 1.7695312-.707031c.4518568-.436795.7304688-1.041547.7304688-1.710937h2.744141v-8.3593754-1.3066406-1.5z" fill="url(#a)" stroke-width=".151306"/><path d="m2.5 0v.52098521h10.744141v-.52098521z" fill="#f6f5f4" stroke-width=".151306"/><g fill="#45a925" transform="matrix(-1 0 0 -.9999468 19.000596 15.999148)"><path d="m12.999999 16v-5h3.000001l-5.000001-6.0000001-4.999999 6.0000001h2.999999v5z" fill="#45a925"/><path d="m11 5-5 6h.4160156l4.5839844-5.5 4.583984 5.5h.416016z" fill="#000" opacity=".2"/><path d="m6.4160156 10.5-.4160156.5h3v-.5zm6.5839844 0v.5h3l-.416016-.5zm-4 5v.5h4v-.5z" fill="#e6f4e1" opacity=".3"/></g></svg>

<?xml version="1.0" encoding="UTF-8" standalone="no"?>
<svg
   xmlns:dc="http://purl.org/dc/elements/1.1/"
   xmlns:cc="http://creativecommons.org/ns#"
   xmlns:rdf="http://www.w3.org/1999/02/22-rdf-syntax-ns#"
   xmlns:svg="http://www.w3.org/2000/svg"
   xmlns="http://www.w3.org/2000/svg"
   xmlns:xlink="http://www.w3.org/1999/xlink"
   xmlns:sodipodi="http://sodipodi.sourceforge.net/DTD/sodipodi-0.dtd"
   xmlns:inkscape="http://www.inkscape.org/namespaces/inkscape"
   height="16"
   width="16"
   version="1.1"
   id="svg22"
   sodipodi:docname="mail-receive.svg"
   inkscape:version="0.92.4 (5da689c313, 2019-01-14)">
  <metadata
     id="metadata28">
    <rdf:RDF>
      <cc:Work
         rdf:about="">
        <dc:format>image/svg+xml</dc:format>
        <dc:type
           rdf:resource="http://purl.org/dc/dcmitype/StillImage" />
        <dc:title />
      </cc:Work>
    </rdf:RDF>
  </metadata>
  <defs
     id="defs26">
    <linearGradient
       gradientTransform="matrix(0.34782603,0,0,0.44142237,-0.46022299,-2.1415219)"
       id="b-0"
       gradientUnits="userSpaceOnUse"
       x1="23.612318"
       x2="27.27836"
       y1="23.79875"
       y2="6.9269948">
      <stop
         offset="0"
         stop-color="#f6f5f4"
         id="stop11-2" />
      <stop
         offset="1"
         stop-color="#e9e7e4"
         id="stop13-3" />
    </linearGradient>
    <linearGradient
       inkscape:collect="always"
       xlink:href="#b-0"
       id="linearGradient873"
       gradientUnits="userSpaceOnUse"
       gradientTransform="matrix(0.34782603,0,0,0.44142237,-0.46022299,-2.1415219)"
       x1="23.612318"
       y1="23.79875"
       x2="27.27836"
       y2="6.9269948" />
  </defs>
  <sodipodi:namedview
     pagecolor="#ffffff"
     bordercolor="#666666"
     borderopacity="1"
     objecttolerance="10"
     gridtolerance="10"
     guidetolerance="10"
     inkscape:pageopacity="0"
     inkscape:pageshadow="2"
     inkscape:window-width="1920"
     inkscape:window-height="1016"
     id="namedview24"
     showgrid="false"
     inkscape:zoom="52.437334"
     inkscape:cx="4.3765544"
     inkscape:cy="7.9999755"
     inkscape:window-x="0"
     inkscape:window-y="27"
     inkscape:window-maximized="1"
     inkscape:current-layer="svg22" />
  <g
     transform="matrix(1.2499506,0,0,1.2082865,-1518.19,379.69425)"
     id="g8"
     style="fill:#aea795">
    <path
       style="fill:#666666;stroke-width:1.22894204"
       d="M 2.375 1.5 C 1.337541 1.5 0.5 2.3084139 0.5 3.3125 L 0.5 14.1875 C 0.5 15.191586 1.337541 16 2.375 16 L 13.625 16 C 14.663709 16 15.5 15.191586 15.5 14.1875 L 15.5 3.3125 C 15.5 2.3084139 14.663709 1.5 13.625 1.5 L 13.244141 1.5 L 13.244141 2.7558594 C 13.814273 2.86851 14.25 3.3325759 14.25 3.9179688 L 14.25 11.166016 L 13.244141 11.166016 L 10.5 11.166016 C 10.5 11.835406 10.221388 12.440158 9.7695312 12.876953 C 9.4306384 13.20455 8.9929982 13.438899 8.5039062 13.535156 C 8.3414335 13.567076 8.1724559 13.583984 8 13.583984 C 7.3075274 13.583984 6.6823259 13.313749 6.2304688 12.876953 C 5.7786116 12.440158 5.5 11.835406 5.5 11.166016 L 2.5 11.166016 L 1.75 11.166016 L 1.75 3.9179688 C 1.75 3.420898 2.0581904 2.996479 2.5 2.8105469 L 2.5 1.5 L 2.375 1.5 z "
       id="path6"
       transform="matrix(0.80003162,0,0,0.82761828,1214.6,-314.2419)" />
    <path
       style="fill:#000000;fill-opacity:1;stroke-width:1;opacity:0.2"
       d="m 1225.1957,-312.37491 v 0.41381 c 0.4561,0.0932 0.8047,0.4773 0.8047,0.96178 v -0.41381 c 0,-0.48448 -0.3486,-0.86858 -0.8047,-0.96178 z m -8.5957,0.0453 c -0.3535,0.15388 -0.6,0.50514 -0.6,0.91652 v 0.41381 c 0,-0.41138 0.2465,-0.76264 0.6,-0.91652 z m -1.6001,9.41577 v 0.41381 c 0,0.831 0.6701,1.50006 1.5001,1.50006 h 9.0004 c 0.831,0 1.5,-0.66906 1.5,-1.50006 v -0.41381 c 0,0.831 -0.669,1.50006 -1.5,1.50006 H 1216.5 c -0.83,0 -1.5001,-0.66906 -1.5001,-1.50006 z"
       id="path6-3"
       inkscape:connector-curvature="0" />
  </g>
  <path
     style="opacity:0.3;fill:#ffffff;stroke-width:1.22894239"
     d="M 2.375 1.5 C 1.337541 1.5 0.5 2.3103669 0.5 3.3144531 L 0.5 3.8046875 C 0.5 2.8006014 1.337541 1.9902344 2.375 1.9902344 L 2.5 1.9902344 L 2.5 1.5 L 2.375 1.5 z M 13.244141 1.5 L 13.244141 1.9902344 L 13.623047 1.9902344 C 14.661756 1.9902344 15.5 2.8006014 15.5 3.8046875 L 15.5 3.3144531 C 15.5 2.3103669 14.661756 1.5 13.623047 1.5 L 13.244141 1.5 z M 1.75 11.166016 L 1.75 11.65625 L 5.5 11.65625 C 5.5 12.995032 6.6150547 14.074219 8 14.074219 C 9.3849452 14.074219 10.5 12.995032 10.5 11.65625 L 14.25 11.65625 L 14.25 11.166016 L 13.244141 11.166016 L 10.5 11.166016 C 10.5 11.333363 10.482399 11.496643 10.449219 11.654297 C 10.382858 11.969604 10.253543 12.262373 10.074219 12.519531 C 9.7156538 13.033941 9.1579205 13.406663 8.5058594 13.535156 C 8.3428075 13.567316 8.1731182 13.583984 8 13.583984 C 7.3075274 13.583984 6.6823259 13.313749 6.2304688 12.876953 C 6.1175045 12.767754 6.0154435 12.64811 5.9257812 12.519531 C 5.7464567 12.262373 5.6171415 11.969604 5.5507812 11.654297 C 5.5176011 11.496643 5.5 11.333363 5.5 11.166016 L 2.5 11.166016 L 1.75 11.166016 z "
     id="path18" />
  <path
     style="opacity:1;fill:url(#linearGradient873);stroke-width:0.15130608;enable-background:new"
     d="M 2.5 0 L 2.5 1.5 L 2.5 2.9082031 L 2.5 11.166016 L 5.5 11.166016 C 5.5 11.835406 5.7786116 12.440158 6.2304688 12.876953 C 6.6823259 13.313749 7.3075274 13.583984 8 13.583984 C 8.6924726 13.583984 9.3176741 13.313749 9.7695312 12.876953 C 10.221388 12.440158 10.5 11.835406 10.5 11.166016 L 13.244141 11.166016 L 13.244141 2.8066406 L 13.244141 1.5 L 13.244141 0 L 2.5 0 z "
     id="path869" />
  <path
     style="opacity:1;fill:#f6f5f4;fill-opacity:1;stroke-width:0.15130608;enable-background:new"
     d="M 2.5,0 V 0.52098521 H 13.244141 V 0 Z"
     id="path847"
     inkscape:connector-curvature="0" />
  <g
     transform="matrix(-1,0,0,-0.9999468,19.000596,15.999148)"
     id="g16"
     style="fill:#45a925;fill-opacity:1">
    <path
       d="M 12.999999,16 V 11 H 16 L 10.999999,4.9999999 6,11 h 2.999999 v 5 z"
       id="path10"
       inkscape:connector-curvature="0"
       style="fill:#45a925;fill-opacity:1" />
    <path
       d="M 11,5 6,11 H 6.4160156 L 11,5.5 15.583984,11 H 16 Z"
       id="path12"
       inkscape:connector-curvature="0"
       style="opacity:0.2;fill:#000000;fill-opacity:1" />
    <path
       d="M 6.4160156,10.5 6,11 H 9 V 10.5 Z M 13,10.5 V 11 h 3 l -0.416016,-0.5 z m -4,5 V 16 h 4 v -0.5 z"
       id="path14"
       inkscape:connector-curvature="0"
       style="opacity:0.3;fill:#e6f4e1;fill-opacity:1" />
  </g>
</svg>
